src/resources/assets/favorites.svg

<svg width="16" height="16" fill="none" xmlns="http://www.w3.org/2000/svg">
    <path d="m 8.4064172,2.2510159 1.5479331,3.1417933 h -0.00899 l 0.00102,0.0018 3.6026297,9.59e-5 c 0.227686,0 0.415856,0.1691969 0.445598,0.3887103 l 0.0041,0.061026 c 0,0.2276866 -0.169221,0.4158504 -0.388752,0.4456349 l -0.06098,0.0041 H 9.6635207 c -0.1512914,0 -0.2908296,-0.075844 -0.3735212,-0.1991673 L 9.2581582,6.0393324 8.7796385,5.0444133 8.0029736,3.4675652 6.6925733,6.1280384 C 6.6270557,6.2610465 6.500188,6.3532245 6.353442,6.3744281 L 3.4182397,6.7985656 5.5435625,8.8669937 C 5.6498203,8.9703732 5.6982779,9.1195058 5.6730986,9.2656402 L 5.1694597,12.188268 7.7713893,10.817171 c -0.043954,0.133302 -0.0677,0.275479 -0.0677,0.422812 0,0.201722 0.044254,0.39307 0.1235876,0.564869 l -3.0464911,1.60478 C 4.4506968,13.58347 4.064631,13.303015 4.1279899,12.93531 L 4.7464615,9.3463529 2.1365626,6.806361 C 1.8691973,6.5461375 2.0166569,6.0922934 2.3859085,6.0389366 L 5.9903427,5.5180818 7.5995299,2.2510159 c 0.1648435,-0.3346879 0.6420439,-0.3346879 0.8068873,0 z m 5.1438468,8.5392311 c 0.248374,0 0.449736,0.201362 0.449736,0.449736 0,0.227687 -0.169221,0.415857 -0.388692,0.445659 l -0.06104,0.0041 H 9.0528984 c -0.2483744,0 -0.4497365,-0.201362 -0.4497365,-0.449737 0,-0.227686 0.1692209,-0.415856 0.3886923,-0.445658 l 0.061044,-0.0041 z m -0.0013,-2.6929023 c 0.248374,0 0.449736,0.201362 0.449736,0.4497365 0,0.2276866 -0.169221,0.4158563 -0.388752,0.4455989 l -0.06098,0.00414 H 9.0516392 c -0.2483745,0 -0.4497365,-0.2013621 -0.4497365,-0.4497365 0,-0.2276866 0.1691609,-0.4158564 0.3886922,-0.4456589 l 0.061044,-0.00408 z"
          fill="#ddd"/>
</svg>

<?xml version="1.0" encoding="UTF-8"?>
<svg xmlns="http://www.w3.org/2000/svg" xmlns:xlink="http://www.w3.org/1999/xlink" width="16px" height="16px" viewBox="0 0 16 16" version="1.1">
<g id="surface1">
<path style=" stroke:none;fill-rule:nonzero;fill:rgb(86.666667%,86.666667%,86.666667%);fill-opacity:1;" d="M 8.40625 2.25 L 9.953125 5.394531 L 9.945312 5.394531 L 13.550781 5.394531 C 13.777344 5.394531 13.964844 5.5625 13.996094 5.785156 L 14 5.84375 C 14 6.070312 13.828125 6.261719 13.609375 6.289062 L 13.550781 6.292969 L 9.664062 6.292969 C 9.511719 6.292969 9.371094 6.21875 9.289062 6.09375 L 9.257812 6.039062 L 8.78125 5.042969 L 8.003906 3.46875 L 6.691406 6.128906 C 6.628906 6.261719 6.5 6.351562 6.351562 6.375 L 3.417969 6.796875 L 5.542969 8.867188 C 5.648438 8.96875 5.699219 9.121094 5.671875 9.265625 L 5.167969 12.1875 L 7.769531 10.816406 C 7.726562 10.949219 7.703125 11.09375 7.703125 11.238281 C 7.703125 11.441406 7.746094 11.632812 7.828125 11.804688 L 4.78125 13.410156 C 4.449219 13.582031 4.066406 13.304688 4.128906 12.933594 L 4.746094 9.347656 L 2.136719 6.804688 C 1.871094 6.546875 2.015625 6.09375 2.386719 6.039062 L 5.992188 5.519531 L 7.597656 2.25 C 7.765625 1.917969 8.242188 1.917969 8.40625 2.25 Z M 13.550781 10.789062 C 13.796875 10.789062 14 10.992188 14 11.238281 C 14 11.46875 13.832031 11.65625 13.609375 11.6875 L 13.550781 11.691406 L 9.054688 11.691406 C 8.804688 11.691406 8.601562 11.488281 8.601562 11.238281 C 8.601562 11.011719 8.773438 10.824219 8.992188 10.792969 L 9.054688 10.789062 Z M 13.550781 8.097656 C 13.796875 8.097656 14 8.296875 14 8.546875 C 14 8.773438 13.828125 8.964844 13.609375 8.992188 L 13.550781 8.996094 L 9.050781 8.996094 C 8.804688 8.996094 8.601562 8.796875 8.601562 8.546875 C 8.601562 8.320312 8.769531 8.132812 8.992188 8.101562 L 9.050781 8.097656 Z M 13.550781 8.097656 "/>
</g>
</svg>
